public/graphics/narrow-wave.svg

<?xml version="1.0" encoding="UTF-8"?>
<!DOCTYPE svg  PUBLIC '-//W3C//DTD SVG 1.1//EN'  'http://www.w3.org/Graphics/SVG/1.1/DTD/svg11.dtd'>
<svg clip-rule="evenodd" fill-rule="evenodd" stroke-linejoin="round" stroke-miterlimit="2" version="1.1" viewBox="0 0 1290 2796" xml:space="preserve" xmlns="http://www.w3.org/2000/svg" xmlns:serif="http://www.serif.com/">
    <g transform="translate(-9.095e-13 -3200)">
        <g transform="matrix(1.1129 0 0 1.6732 9.095e-13 -2728.1)" serif:id="iPhone 14 Pro Max, 15 Plus, 15 Pro Max (1290x2796)">
            <rect y="3543" width="1159.2" height="1671.1" fill="none"/>
            <clipPath id="a">
                <rect y="3543" width="1159.2" height="1671.1"/>
            </clipPath>
            <g clip-path="url(#a)">
                <g transform="matrix(.566 0 0 .62076 0 3543)">
                    <g transform="scale(2.2756 5.2873)">
                        <path d="m0 538 30 7.2c30 7.1 90 21.5 150 30.5s120 12.6 180 15.3 120 4.3 180-14 120-56.7 180-58.5 120 32.8 150 50.2l30 17.3v-586h-900v538z" fill="#1d5fd3" fill-rule="nonzero"/>
                    </g>
                    <g transform="scale(2.2756 5.2873)">
                        <path d="m0 285 30 2.7c30 2.6 90 8 150 2.3s120-22.3 180-26.3 120 4.6 180 0.8 120-20.2 180-14.7 120 32.9 150 46.5l30 13.7v-310h-900v285z" fill="#103fae" fill-rule="nonzero"/>
                    </g>
                    <g transform="scale(2.2756 5.2873)">
                        <path d="m0 179 30-7.7c30-7.6 90-23 150-24.3s120 11.3 180 5.8 120-29.1 180-33.6 120 10.1 180 3.1 120-35.6 150-50l30-14.3v-58h-900v179z" fill="#07309b" fill-rule="nonzero"/>
                    </g>
                </g>
                <g transform="matrix(1.288 0 0 3.2822 0 3543)">
                    <path d="m900 310v69l-30-7.3c-30-7.4-90-22-150-10s-120 50.6-180 63c-60 12.3-120-1.7-180-20.9-60-19.1-120-43.5-180-55s-120-10.1-150-9.5l-30 0.7v-55l30 2.7c30 2.6 90 8 150 2.3s120-22.3 180-26.3 120 4.6 180 0.8 120-20.2 180-14.7 120 32.9 150 46.5l30 13.7z" fill="#174fc0"/>
                </g>
            </g>
        </g>
    </g>
</svg>

<?xml version="1.0" encoding="UTF-8" standalone="no"?>
<!DOCTYPE svg PUBLIC "-//W3C//DTD SVG 1.1//EN" "http://www.w3.org/Graphics/SVG/1.1/DTD/svg11.dtd">
<svg width="100%" height="100%" viewBox="0 0 1290 2796" version="1.1" xmlns="http://www.w3.org/2000/svg" xmlns:xlink="http://www.w3.org/1999/xlink" xml:space="preserve" xmlns:serif="http://www.serif.com/" style="fill-rule:evenodd;clip-rule:evenodd;stroke-linejoin:round;stroke-miterlimit:2;">
    <g transform="matrix(1,0,0,1,-9.09495e-13,-3200)">
        <g id="iPhone-14-Pro-Max--15-Plus--15-Pro-Max--1290x2796-" serif:id="iPhone 14 Pro Max, 15 Plus, 15 Pro Max (1290x2796)" transform="matrix(1.11287,0,0,1.67318,9.09495e-13,-2728.07)">
            <rect x="0" y="3543" width="1159.17" height="1671.07" style="fill:none;"/>
            <clipPath id="_clip1">
                <rect x="0" y="3543" width="1159.17" height="1671.07"/>
            </clipPath>
            <g clip-path="url(#_clip1)">
                <g id="Back" transform="matrix(0.566,0,0,0.620762,0,3543)">
                    <g transform="matrix(2.27556,0,0,5.28734,0,0)">
                        <path d="M0,538L30,545.2C60,552.3 120,566.7 180,575.7C240,584.7 300,588.3 360,591C420,593.7 480,595.3 540,577C600,558.7 660,520.3 720,518.5C780,516.7 840,551.3 870,568.7L900,586L900,0L0,0L0,538Z" style="fill:rgb(29,95,211);fill-rule:nonzero;"/>
                    </g>
                    <g transform="matrix(2.27556,0,0,5.28734,0,0)">
                        <path d="M0,285L30,287.7C60,290.3 120,295.7 180,290C240,284.3 300,267.7 360,263.7C420,259.7 480,268.3 540,264.5C600,260.7 660,244.3 720,249.8C780,255.3 840,282.7 870,296.3L900,310L900,0L0,0L0,285Z" style="fill:rgb(16,63,174);fill-rule:nonzero;"/>
                    </g>
                    <g transform="matrix(2.27556,0,0,5.28734,0,0)">
                        <path d="M0,179L30,171.3C60,163.7 120,148.3 180,147C240,145.7 300,158.3 360,152.8C420,147.3 480,123.7 540,119.2C600,114.7 660,129.3 720,122.3C780,115.3 840,86.7 870,72.3L900,58L900,0L0,0L0,179Z" style="fill:rgb(7,48,155);fill-rule:nonzero;"/>
                    </g>
                </g>
                <g id="Front" transform="matrix(1.28796,0,0,3.28218,0,3543)">
                    <path d="M900,310L900,379L870,371.7C840,364.3 780,349.7 720,361.7C660,373.7 600,412.3 540,424.7C480,437 420,423 360,403.8C300,384.7 240,360.3 180,348.8C120,337.3 60,338.7 30,339.3L0,340L0,285L30,287.7C60,290.3 120,295.7 180,290C240,284.3 300,267.7 360,263.7C420,259.7 480,268.3 540,264.5C600,260.7 660,244.3 720,249.8C780,255.3 840,282.7 870,296.3L900,310Z" style="fill:rgb(23,79,192);"/>
                </g>
            </g>
        </g>
    </g>
</svg>
